assets/icons/kids/qa.svg

<svg width="24" height="24" viewBox="0 0 24 24" fill="none" xmlns="http://www.w3.org/2000/svg">
<path d="M17.2523 14.6151C16.7859 14.7274 16.2988 14.7868 15.7979 14.7868C12.3774 14.7868 9.60449 12.014 9.60449 8.59362C9.60449 5.17319 12.3774 2.40039 15.7979 2.40039C19.2183 2.40039 21.9912 5.17319 21.9912 8.59362C21.9912 10.8613 20.7724 12.8443 18.9541 13.9234L20.1676 16.4145L17.2523 14.6151Z" fill="#0077CC"/>
<path d="M13.1794 11.1152C13.1794 11.0356 13.1906 10.956 13.213 10.8764C13.2354 10.7944 13.2764 10.7123 13.3361 10.6302C13.3784 10.5581 13.4356 10.4487 13.5077 10.302C13.5823 10.1553 13.6656 9.98246 13.7576 9.78352C13.8496 9.58459 13.9478 9.36824 14.0523 9.13449C14.1592 8.89825 14.2674 8.65829 14.3768 8.41459C14.4862 8.1684 14.5944 7.92346 14.7013 7.67977C14.8107 7.43358 14.9139 7.20356 15.0109 6.9897C15.1079 6.77336 15.1962 6.57815 15.2757 6.40408C15.3553 6.23002 15.4225 6.08952 15.4772 5.98259C15.4846 5.92788 15.4995 5.87442 15.5219 5.82219C15.5443 5.76749 15.5741 5.719 15.6114 5.67672C15.6487 5.63196 15.6935 5.59715 15.7457 5.57228C15.7979 5.54493 15.8589 5.53125 15.9285 5.53125C16.018 5.53125 16.0901 5.54368 16.1448 5.56855C16.202 5.59342 16.248 5.62823 16.2829 5.67299C16.3202 5.71527 16.35 5.765 16.3724 5.82219C16.3948 5.87939 16.4171 5.94031 16.4395 6.00497C16.4594 6.06216 16.4781 6.11687 16.4955 6.16909C16.5129 6.21882 16.529 6.25737 16.544 6.28472C16.7106 6.61794 16.8722 6.95365 17.0289 7.29184C17.188 7.63003 17.3447 7.97444 17.4989 8.32507C17.6555 8.67321 17.8134 9.02632 17.9726 9.38441C18.1317 9.74249 18.2971 10.1068 18.4687 10.4773L18.5395 10.5818C18.5594 10.6091 18.5831 10.6427 18.6104 10.6825C18.6378 10.7198 18.6626 10.7608 18.685 10.8056C18.7099 10.8503 18.7298 10.8976 18.7447 10.9473C18.7621 10.997 18.7708 11.0468 18.7708 11.0965C18.7708 11.2457 18.7285 11.3514 18.644 11.4136C18.5594 11.4782 18.4562 11.5105 18.3344 11.5105C18.2672 11.5105 18.2051 11.4994 18.1479 11.477C18.0932 11.4571 18.0447 11.4297 18.0024 11.3949C17.9601 11.3576 17.9266 11.3153 17.9017 11.2681C17.8768 11.2184 17.8607 11.1661 17.8532 11.1114C17.7836 10.9597 17.7189 10.818 17.6592 10.6862C17.5996 10.5519 17.5411 10.4226 17.4839 10.2983C17.4292 10.1739 17.3758 10.0533 17.3235 9.93645C17.2713 9.81709 17.2191 9.69773 17.1669 9.57837C17.1271 9.57837 17.0711 9.57837 16.999 9.57837C16.9269 9.57588 16.8461 9.57215 16.7566 9.56718C16.6148 9.56718 16.4706 9.56594 16.3239 9.56345C16.1797 9.56096 16.0317 9.55972 15.88 9.55972C15.7283 9.55723 15.5717 9.55723 15.41 9.55972C15.2484 9.55972 15.0793 9.56345 14.9027 9.57091C14.8754 9.5734 14.8493 9.57588 14.8244 9.57837C14.7995 9.57837 14.7734 9.57837 14.7461 9.57837C14.6764 9.74746 14.6105 9.9091 14.5484 10.0633C14.4862 10.215 14.4303 10.3555 14.3805 10.4848C14.3308 10.6141 14.286 10.7297 14.2462 10.8317C14.2089 10.9311 14.1803 11.012 14.1604 11.0741V11.0704C14.1455 11.1251 14.1281 11.1786 14.1082 11.2308C14.0908 11.283 14.0647 11.3303 14.0299 11.3725C13.9951 11.4123 13.9466 11.4446 13.8844 11.4695C13.8247 11.4969 13.7452 11.5105 13.6457 11.5105C13.5114 11.5105 13.3995 11.477 13.31 11.4098C13.223 11.3427 13.1794 11.2445 13.1794 11.1152ZM15.0855 8.76521C15.1377 8.76521 15.2049 8.76521 15.2869 8.76521C15.3715 8.76521 15.4796 8.76646 15.6114 8.76894C15.7457 8.76894 15.9098 8.77019 16.1038 8.77267C16.2978 8.77267 16.5328 8.77392 16.8088 8.7764C16.6944 8.52773 16.5651 8.24798 16.4209 7.93714C16.2766 7.62382 16.1063 7.25951 15.9098 6.84423C15.8527 6.97105 15.7917 7.11031 15.7271 7.262C15.6624 7.41369 15.594 7.57159 15.5219 7.73572C15.4523 7.89984 15.3802 8.06894 15.3056 8.24301C15.2335 8.41708 15.1601 8.59115 15.0855 8.76521Z" fill="white"/>
<path d="M11.7033 3.94075C9.19193 6.13217 8.86452 9.89494 10.9071 12.4827C9.56738 9.98273 10.0749 6.80256 12.3027 4.85833C14.8929 2.59822 18.8248 2.86576 21.0849 5.4559C21.153 5.53398 21.2196 5.61268 21.2831 5.69312C21.0657 5.28775 20.8008 4.89966 20.4855 4.53833C18.2254 1.94819 14.2935 1.68065 11.7033 3.94075Z" fill="#005A9A"/>
<path d="M8.37174 19.7373C8.01479 19.7373 7.66486 19.7073 7.32433 19.6496L4.16212 21.6013L5.42964 18.9995C3.47585 17.9496 2.14746 15.8865 2.14746 13.5132C2.14746 10.0757 4.93424 7.28906 8.37174 7.28906C11.8092 7.28906 14.596 10.0757 14.596 13.5132C14.596 16.9507 11.8092 19.7373 8.37174 19.7373Z" fill="#FF736C"/>
<path d="M4.14087 8.67122C1.55073 10.9313 1.28318 14.8632 3.54329 17.4534C3.61162 17.5317 3.68195 17.6074 3.75325 17.6814C1.94568 15.1084 2.33608 11.5335 4.75817 9.42003C7.26981 7.22859 11.0433 7.41348 13.3304 9.78836C13.2052 9.61011 13.0694 9.43661 12.923 9.2688C10.6629 6.67866 6.73101 6.41111 4.14087 8.67122Z" fill="#C22119"/>
<path d="M5.14526 13.5161C5.14526 12.9657 5.22257 12.4632 5.37718 12.0087C5.53489 11.5541 5.75599 11.1629 6.04048 10.8351C6.32806 10.5074 6.67285 10.2538 7.07484 10.0744C7.47993 9.892 7.92831 9.80078 8.41998 9.80078C8.93948 9.80078 9.39714 9.892 9.79295 10.0744C10.1919 10.2538 10.5258 10.5074 10.7948 10.8351C11.067 11.1629 11.2726 11.5541 11.4118 12.0087C11.5509 12.4632 11.6205 12.9657 11.6205 13.5161C11.6205 13.9862 11.5602 14.4268 11.4396 14.8381C11.319 15.2463 11.1427 15.6143 10.9108 15.942C10.9912 16.0224 11.0716 16.0905 11.152 16.1461C11.2355 16.1987 11.3159 16.2234 11.3932 16.2203C11.4303 16.2203 11.4674 16.2142 11.5045 16.2018C11.5416 16.1863 11.5803 16.1709 11.6205 16.1554C11.6607 16.1369 11.7024 16.1214 11.7457 16.109C11.789 16.0936 11.8369 16.0858 11.8895 16.0858C11.9452 16.0858 12.0008 16.0967 12.0565 16.1183C12.1122 16.1369 12.1616 16.1678 12.2049 16.2111C12.2482 16.2513 12.2838 16.3023 12.3116 16.3641C12.3394 16.4229 12.3534 16.494 12.3534 16.5775C12.3534 16.6888 12.3286 16.7862 12.2791 16.8697C12.2328 16.9501 12.1694 17.0181 12.089 17.0738C12.0086 17.1295 11.9127 17.1697 11.8014 17.1944C11.6932 17.2222 11.5787 17.2362 11.4581 17.2362C11.3437 17.2362 11.234 17.2191 11.1288 17.1851C11.0237 17.1542 10.9216 17.1109 10.8227 17.0553C10.7268 16.9965 10.634 16.9285 10.5444 16.8512C10.4547 16.7739 10.3681 16.6919 10.2846 16.6053C10.0249 16.8063 9.73574 16.9625 9.41724 17.0738C9.10183 17.182 8.75704 17.2362 8.38287 17.2362C8.05509 17.2362 7.74741 17.1929 7.45983 17.1063C7.17225 17.0197 6.90786 16.896 6.66666 16.7352C6.42856 16.5744 6.21519 16.3827 6.02656 16.16C5.83793 15.9343 5.67713 15.6838 5.54417 15.4086C5.41429 15.1334 5.31534 14.8365 5.24731 14.518C5.17928 14.1995 5.14526 13.8656 5.14526 13.5161ZM6.20282 13.5161C6.20282 13.7481 6.22447 13.9784 6.26776 14.2073C6.31105 14.433 6.37444 14.6495 6.45793 14.8566C6.54452 15.0607 6.64965 15.2509 6.77335 15.4272C6.90013 15.6003 7.04392 15.7519 7.20472 15.8817C7.36861 16.0085 7.54951 16.109 7.74741 16.1832C7.94841 16.2544 8.16487 16.2899 8.39679 16.2899C8.64726 16.2899 8.87609 16.2528 9.08327 16.1786C9.29046 16.1013 9.47599 15.9931 9.63988 15.8539C9.56876 15.7704 9.49764 15.6931 9.42652 15.622C9.35539 15.5509 9.28427 15.489 9.21315 15.4365C9.14512 15.3839 9.07554 15.3421 9.00442 15.3112C8.9333 15.2803 8.86063 15.2648 8.78642 15.2648C8.76168 15.2648 8.73076 15.2679 8.69365 15.2741C8.65654 15.2772 8.61634 15.2787 8.57305 15.2787C8.52976 15.2787 8.471 15.2741 8.39679 15.2648C8.32257 15.2525 8.24836 15.2293 8.17415 15.1953C8.10302 15.1581 8.04118 15.1071 7.98861 15.0422C7.93604 14.9772 7.90976 14.8891 7.90976 14.7778C7.90976 14.6727 7.92831 14.5876 7.96542 14.5227C8.00562 14.4547 8.05664 14.4021 8.11848 14.365C8.18342 14.3248 8.25454 14.2969 8.33185 14.2815C8.40916 14.266 8.48647 14.2583 8.56377 14.2583C8.74003 14.2583 8.89928 14.2768 9.04153 14.314C9.18377 14.3511 9.31829 14.4067 9.44507 14.4809C9.57185 14.5521 9.69554 14.6417 9.81614 14.75C9.93983 14.8551 10.0697 14.9757 10.2058 15.1118C10.3233 14.8767 10.4114 14.6232 10.4702 14.3511C10.5289 14.0789 10.5583 13.8006 10.5583 13.5161C10.5583 13.1451 10.515 12.7941 10.4284 12.4632C10.3418 12.1293 10.2089 11.8355 10.0295 11.5819C9.85325 11.3284 9.62906 11.1274 9.35694 10.9789C9.08791 10.8305 8.76786 10.7563 8.39679 10.7563C8.04736 10.7563 7.73659 10.8228 7.46447 10.9557C7.19235 11.0887 6.96197 11.2758 6.77335 11.517C6.58781 11.7582 6.44556 12.0489 6.34661 12.389C6.25075 12.7261 6.20282 13.1018 6.20282 13.5161Z" fill="white"/>
</svg>

<svg xmlns="http://www.w3.org/2000/svg" width="24" height="24" fill="none" viewBox="0 0 24 24"><path fill="#07c" d="M17.252 14.615a6.193 6.193 0 1 1 1.702-.692l1.214 2.491z"/><path fill="#fff" d="M13.18 11.115q0-.12.033-.239a.8.8 0 0 1 .123-.246q.063-.108.172-.328.111-.22.25-.518.138-.3.294-.65l.325-.72q.164-.369.324-.734l.31-.69q.145-.325.265-.586t.201-.421a.6.6 0 0 1 .134-.306.4.4 0 0 1 .135-.105.4.4 0 0 1 .182-.04q.135 0 .217.037.085.037.138.104a.5.5 0 0 1 .09.15q.033.084.066.182.031.086.056.164.027.074.049.116.25.5.485 1.007.239.507.47 1.033.235.522.474 1.06.238.536.496 1.092l.07.105q.03.04.071.1a1 1 0 0 1 .075.124.7.7 0 0 1 .086.29q0 .224-.127.318a.5.5 0 0 1-.31.097.5.5 0 0 1-.186-.034.5.5 0 0 1-.146-.082.45.45 0 0 1-.149-.284 97 97 0 0 1-.53-1.175l-.156-.358h-.168l-.242-.01q-.213 0-.433-.005l-.444-.003a15 15 0 0 0-.47 0q-.242 0-.507.01l-.079.008h-.078a65 65 0 0 0-.5 1.254q-.056.15-.086.242v-.004a2 2 0 0 1-.052.16.4.4 0 0 1-.078.143.4.4 0 0 1-.146.097.6.6 0 0 1-.238.04.54.54 0 0 1-.336-.1q-.13-.1-.13-.295m1.906-2.35h.2q.128 0 .325.004.202 0 .493.004.291 0 .705.003a294 294 0 0 0-.9-1.932q-.084.19-.182.418l-.205.474-.216.507q-.108.261-.22.522"/><path fill="#005a9a" d="M11.703 3.94a6.224 6.224 0 0 0-.796 8.543 6.225 6.225 0 0 1 10.376-6.79 6.224 6.224 0 0 0-9.58-1.752"/><path fill="#ff736c" d="M8.372 19.737q-.536 0-1.048-.087L4.162 21.6 5.43 19a6.224 6.224 0 1 1 2.942.738"/><path fill="#c22119" d="M4.14 8.671a6.224 6.224 0 0 0-.387 9.01 6.224 6.224 0 0 1 9.577-7.893 6.224 6.224 0 0 0-9.19-1.117"/><path fill="#fff" d="M5.145 13.516q0-.825.232-1.507.237-.682.663-1.174a3 3 0 0 1 1.035-.76A3.2 3.2 0 0 1 8.42 9.8q.78 0 1.373.273.598.27 1.002.761.408.492.617 1.174.208.682.208 1.507 0 .705-.18 1.322a3.7 3.7 0 0 1-.53 1.104q.122.12.242.204a.42.42 0 0 0 .241.074.4.4 0 0 0 .111-.018 5 5 0 0 1 .242-.093.46.46 0 0 1 .31.01q.084.027.149.092.065.06.107.153.04.088.041.213a.56.56 0 0 1-.074.293.6.6 0 0 1-.19.204.8.8 0 0 1-.288.12 1.4 1.4 0 0 1-.343.042q-.171 0-.33-.05a1.5 1.5 0 0 1-.305-.13 2 2 0 0 1-.279-.205 4 4 0 0 1-.26-.246q-.39.301-.867.469a3.2 3.2 0 0 1-1.034.162q-.492 0-.923-.13a2.96 2.96 0 0 1-1.433-.946 3.6 3.6 0 0 1-.483-.751 4 4 0 0 1-.297-.891 4.8 4.8 0 0 1-.102-1.002m1.058 0q0 .348.065.691.064.338.19.65.13.306.315.57.19.26.432.455.246.19.542.301.302.107.65.107.376 0 .686-.111.31-.117.557-.325a4 4 0 0 0-.213-.232 2 2 0 0 0-.214-.185 1 1 0 0 0-.209-.126.54.54 0 0 0-.31-.037 1.5 1.5 0 0 1-.297-.01 1 1 0 0 1-.223-.069.6.6 0 0 1-.185-.153.4.4 0 0 1-.08-.264q.001-.157.056-.255a.44.44 0 0 1 .153-.158.6.6 0 0 1 .214-.084q.115-.023.232-.023.264 0 .478.056t.403.167q.19.106.371.269.186.158.39.362a3.2 3.2 0 0 0 .264-.76 4.14 4.14 0 0 0-.042-1.888 2.7 2.7 0 0 0-.398-.882 1.94 1.94 0 0 0-.673-.603q-.405-.223-.96-.223-.524 0-.933.2a1.96 1.96 0 0 0-.69.561 2.6 2.6 0 0 0-.427.872 4 4 0 0 0-.144 1.127"/></svg>
